X: 2
T: Twinkle Little Star
R: reel
M: 4/4
L: 1/8
K: Cmaj
AAcAdAed|ccecgcec|GGBGcGdc|FFAFcFcB|
AAcAdAed|ccecgcec|GGBGcGdc|FFAFcFcB|
Az/2Az/2Az/2Az/2Gc|Az/2Az/2Az/2Az/2GE|
Az/2Az/2Az/2Az/2Gc|
